!!!XEN: My pipe
!!!AGN: Mide' (Grand Medicine) initiation song of the first or second degree
!!!COM: Anonymous
!!!CNT: Native American -- Ojibway
!!!TXO: Ojibway
!!!MLC: White Earth reservation, northern Minnesota, U.S.A.
!!!MRD: 1907-1909///
!!!MPN: Main'ans ("Little wolf")
**kern
*MM108
*Imale
*k[f#]
*clefF4
*M2/4
*>[start1,main,start2,main]
*>start1
8.d
16d
=1
8.d
16d
8.d
16d
=2
4d
16B
8A
16A
*>main
=!:3
8.A
16A
16A
8G
16E
=4
4E
4E
=5
4.E
16d
16d
=6
8.d
16B
8.B
16B
=7
4A
16A
8G
16G
=8
8.G
16G
16G
8E
16E
=9
4D
8.D
16D
=10
8.D
16D
8.D
16D
=11
4D
8.E
16E
=12
8.E
16E
8.E
16E
=13
4D
8.D
16D
=14
8.BB
16BB
8.BB
16BB
=15
2GG
*>start2
==!!16
4r
16d
16d
16d
16d
=17
4d
16d
8B
16A
=:!
*-
!!!OCL: Frances Densmore
!!!YOR: Chippewa [i.e., Ojibway] Music, Bulletin 45 of the Bureau of American Ethnology, Smitsonian Institution
!!!ONM: 6
!!!PPG: 35
!!!PUB: published
!!!PPR: Government Printing Office
!!!PPP: Washington, D.C.
!!!PDT: 1909///
!!!EST: missing clef changes, text, drum tempo, and drum part
!!!YEC: Copyright 1998 Paul von Hippel
!!!YEM: Rights to all derivate electronic formats reserved.
!!!EFL: 1/42
